shared/images/iconfont/kb-iconfont-link-16.svg

<?xml version="1.0" encoding="UTF-8"?>
<svg width="16px" height="16px" viewBox="0 0 16 16" version="1.1" xmlns="http://www.w3.org/2000/svg" xmlns:xlink="http://www.w3.org/1999/xlink">
    <!-- Generator: sketchtool 49.3 (51167) - http://www.bohemiancoding.com/sketch -->
    <title>F7009922-1FE8-41D8-9C62-C34B71BC868B</title>
    <desc>Created with sketchtool.</desc>
    <defs></defs>
    <g id="Colors,-icons" stroke="none" stroke-width="1" fill="none" fill-rule="evenodd">
        <g id="Icons-2" transform="translate(-491.000000, -187.000000)">
            <g id="kb-iconfont-link-16" transform="translate(491.000000, 187.000000)">
                <rect id="icon-area" fill="#D8D8D8" opacity="0" x="0" y="0" width="16" height="16"></rect>
                <path d="M4.96044941,11.0398444 C5.14795726,11.2274541 5.40233363,11.3328607 5.66758181,11.3328607 C5.93282999,11.3328607 6.18720636,11.2274541 6.37471421,11.0398444 L11.0420568,6.37250183 C11.2955163,6.12003333 11.3948068,5.75140244 11.302441,5.40578612 C11.2100752,5.0601698 10.940124,4.79021858 10.5945077,4.69785279 C10.2488913,4.60548701 9.88026046,4.70477749 9.62779196,4.95823703 L4.96044941,9.62557957 C4.77284133,9.81308829 4.66743585,10.0674643 4.66743585,10.332712 C4.66743585,10.5979596 4.77284133,10.8523357 4.96044941,11.0398444 Z M7.29412068,13.0919015 C6.51068576,13.8753365 5.36880447,14.1813026 4.29861246,13.8945455 C3.22842044,13.6077885 2.39250533,12.7718733 2.10574824,11.7016813 C1.81899116,10.6314893 2.12495732,9.48960803 2.90839225,8.7061731 L5.10125647,6.51330888 L3.686985,5.09904408 L1.49412078,7.2919083 C-0.498041563,9.28407249 -0.49804007,12.5140073 1.49412412,14.5061697 C3.4862883,16.498332 6.71622314,16.4983305 8.70838548,14.5061663 L10.9012497,12.3133088 L9.48697823,10.8990373 L7.29412068,13.0919015 Z M14.508052,1.49191507 C12.5147994,-0.497305022 9.28737332,-0.497305022 7.29412068,1.49191507 L5.10125647,3.68477928 L6.51552127,5.09904408 L8.70838548,2.90617987 C9.49182041,2.12274494 10.6337017,1.81677877 11.7038937,2.10353586 C12.7740857,2.39029294 13.6100008,3.22620806 13.8967579,4.29640007 C14.183515,5.36659209 13.8775488,6.50847337 13.0941139,7.2919083 L10.9012297,9.48477252 L12.3154945,10.8990373 L14.5083587,8.7061731 C16.4973335,6.71264196 16.4971963,3.48527708 14.508052,1.49191507 Z" id="link" fill="#000000" fill-rule="nonzero"></path>
            </g>
        </g>
    </g>
</svg>

<svg xmlns="http://www.w3.org/2000/svg" width="16" height="16" viewBox="0 0 16 16">
    <path fill="#000" fill-rule="nonzero" d="M4.96 11.04a1 1 0 0 0 1.415 0l4.667-4.667a1 1 0 1 0-1.414-1.415L4.96 9.626a1 1 0 0 0 0 1.414zm2.334 2.052a3.101 3.101 0 1 1-4.386-4.386l2.193-2.193L3.687 5.1 1.494 7.292a5.101 5.101 0 0 0 7.214 7.214l2.193-2.193L9.487 10.9l-2.193 2.193zm7.214-11.6a5.106 5.106 0 0 0-7.214 0L5.101 3.685l1.415 1.414 2.192-2.193a3.101 3.101 0 1 1 4.386 4.386l-2.193 2.193 1.414 1.414 2.193-2.193a5.107 5.107 0 0 0 0-7.214z"/>
</svg>
